X:0165
T:2d. Quick Step 30th. Regt.
M:2/4
L:1/8
Q:1/4=84
I: :: ::
Z:Jack Campin * www.campin.me.uk * 2009
K:D
 Ad        d2|Aee2| f/e/f/g/  ad|cBcA |
 Ad        d2|Aee2|(f/e/f/g/) ad|ecd2:|
(f/e/f/g/) ad|cBcA| f/e/f/g/  ad|cBcA |
 Ad        d2|Aee2|(f/e/f/g/) ad|ecd2:|

